X: 195
T:Stan Chapman
R:jig
C:Jerry Holland
M:6/8
K:A
F|"A"E3 EFA|"E"B3 Bce|"A"fea "F#m"fec|"Bm"ecA "E"BAF|
"A"E3 EFA|"E"B3 Bce|"D"fea "E"fec|"A"ecA A2 :|
f|"A"e3 ecA|"D"f3 fga|"A"fec BAB|"F#m"cAF F2f|
"A"e3 ecA|"D"f3 fga|fec "E"BAB|"A"cAA A2 f|
"A"e3 ecA|"D"f3 fga|"A"fec BAB|"F#m"cAF F2f|
"A"ecA ecA|"D"fdf fga|fec "E"BAB|"A"cAA A2 |]
